!!!!SEGMENT: pl-cz--iii-555--001-008_raszek-waclaw--requiem-benedictus.krn
!!!cenid: 17xx:1087
!!!COM: Raszek, Wacław
!!!COM-rismid: pe30020314
!!!CDT: <1848->1848
!!!CNT:
!!!OPR: Requiem
!!!OTL: Benedictus
!!!OMV: 008
!!!PDT:
!!!AGN: Sacred; Requiem
!!!SMS-siglum: PL-CZ
!!!SMS-shelfmark: III-555
!!!SMS-shelfwork: 001-008 M
!!!SMS-variant:
!!!SMS-altvar:
!!!NIFC-rismid: 300001055
!!!system-decoration: [(s1,s2,s3)][(s4,s5)][(s6,s7,s8,s9)]
!!!AIN: 1 alto 1 bass 2 clars 1 cor 2 empty 1 tenor 1 vox
!!!key:
**kern	**text	**dynam	**kern	**text	**dynam	**kern	**text	**kern	**text	**kern	**dynam	**kern	**dynam	**kern	**dynam	**kern	**kern
*part9	*part9	*part9	*part8	*part8	*part8	*part7	*part7	*part6	*part6	*part5	*part5	*part4	*part4	*part3	*part3	*part2	*part1
*staff9	*staff9	*	*staff8	*staff8	*	*staff7	*staff7	*staff6	*staff6	*staff5	*	*staff4	*	*staff3	*	*staff2	*staff1
*Ibass	*	*	*Itenor	*	*	*Ialto	*	*Ivox	*	*Icor	*	*Iempty	*	*Iempty	*	*Iclars	*Iclars
*I"Basso.	*	*	*I"Tenore.	*	*	*I"Alto	*	*I"Canto	*	*I"Corno 2do in Dis	*	*I"Corno 1mo in dis	*	*I"Fagotto vel Violone	*	*I"Clarinetto 2do in B	*I"Clarinetto 1mo in B
*I'B.	*	*	*I'T.	*	*	*I'A.	*	*I'C.	*	*I'C. II	*	*I'C. I	*	*I'Fag. vel Violone	*	*I'Cl. II	*I'Cl. I
*clefF4	*	*	*clefC4	*	*	*clefC3	*	*clefC1	*	*clefG2	*	*clefG2	*	*clefF4	*	*clefG2	*clefG2
*	*	*	*	*	*	*	*	*	*	*ITrd5c9	*	*ITrd5c9	*	*	*	*ITrd1c2	*ITrd1c2
*k[b-e-a-]	*	*	*k[b-e-a-]	*	*	*k[b-e-a-]	*	*k[b-e-a-]	*	*k[b-e-a-]	*	*k[b-e-a-]	*	*k[b-e-a-]	*	*k[b-e-a-]	*k[b-e-a-]
*E-:	*	*	*E-:	*	*	*E-:	*	*E-:	*	*E-:	*	*E-:	*	*E-:	*	*E-:	*E-:
*M2/2	*	*	*M2/2	*	*	*M2/2	*	*M2/2	*	*M2/2	*	*M2/2	*	*M2/2	*	*M2/2	*M2/2
*met(c|)	*	*	*met(c|)	*	*	*met(c|)	*	*met(c|)	*	*met(c|)	*	*met(c|)	*	*met(c|)	*	*met(c|)	*met(c|)
=1	=1	=1	=1	=1	=1	=1	=1	=1	=1	=1	=1	=1	=1	=1	=1	=1	=1
*2\right	*	*	*2\right	*	*	*2\right	*	*2\right	*	*	*	*	*	*2\right	*	*	*
!	!	!	!	!	!	!	!	!	!	!	!	!	!	!	!	!LO:TX:t=P:problem=all\right&colon; global	!
!LO:TX:a:Bi:t=adagio.	!	!	!	!	!	!LO:TX:a:Bi:t=adagio	!	!	!	!LO:TX:a:Bi:t=Adagio	!	!LO:TX:b:t=3	!	!LO:TX:a:Bi:t=adagio	!	!LO:TX:a:Bi:t=Adagio	!LO:TX:a:Bi:t=adagio
!	!	!	!	!	!	!	!	!	!	!LO:TX:a:t=3.	!	!	!	!	!	!LO:TX:a:t=3	!LO:TX:a:t=3
2C/	Be-	.	2.c\	Be-	.	2.g\	Be-	2.ee-\	Be-	0r	.	0r	.	4C/	.	0r	0r
.	.	.	.	.	.	.	.	.	.	.	.	.	.	4r	.	.	.
2G\	-ne-	.	.	.	.	.	.	.	.	.	.	.	.	4G\	.	.	.
.	.	.	4d\	-ne-	.	4f\	-ne-	4dd\	-ne-	.	.	.	.	4r	.	.	.
=2	=2	=2	=2	=2	=2	=2	=2	=2	=2	=2	=2	=2	=2	=2	=2	=2	=2
2A-\	-di-	.	2c\	-di-	.	8f\L	-di-	8dd\L	-di-	.	.	.	.	4A-\	.	.	.
.	.	.	.	.	.	8e-\	.	8cc\	.	.	.	.	.	.	.	.	.
.	.	.	.	.	.	8d\	.	8bn\	.	.	.	.	.	4r	.	.	.
.	.	.	.	.	.	8e-\J	.	8cc\J	.	.	.	.	.	.	.	.	.
4E-\	-ctus	.	4c\	-ctus	.	4g\	-ctus	4cc\	-ctus	.	.	.	.	4E-\	.	.	.
4E-\	qui	.	4c\	qui	.	4g\	qui	8cc\L	qui	.	.	.	.	4E-\	.	.	.
.	.	.	.	.	.	.	.	8ee-\J	.	.	.	.	.	.	.	.	.
=3	=3	=3	=3	=3	=3	=3	=3	=3	=3	=3	=3	=3	=3	=3	=3	=3	=3
2F\	ve-	.	2d\	ve-	.	2a-\	ve-	4.dd\	ve-	1r	.	1r	.	4F\	.	1r	1r
.	.	.	.	.	.	.	.	.	.	.	.	.	.	4r	.	.	.
.	.	.	.	.	.	.	.	8ff\	.	.	.	.	.	.	.	.	.
4G\	.	.	2G/	.	.	8g\L	.	8ee-\L	.	.	.	.	.	4G\	.	.	.
.	.	.	.	.	.	8f\	.	8dd\	.	.	.	.	.	.	.	.	.
4GG/	.	.	.	.	.	8e-\	.	8cc\	.	.	.	.	.	4GG/	.	.	.
.	.	.	.	.	.	8d\J	.	8b-\J	.	.	.	.	.	.	.	.	.
=4	=4	=4	=4	=4	=4	=4	=4	=4	=4	=4	=4	=4	=4	=4	=4	=4	=4
*	*	*	*	*	*	*	*	*	*	*2\right	*	*2\right	*	*	*	*2\right	*2\right
!	!	!	!	!	!	!	!	!	!	!	!LO:DY:a	!	!	!	!	!	!
4C/	-nit	.	4G/	-nit	.	4e-\	-nit	4cc\	-nit	4r	p	4r	.	4C/	p	4r	4r
4r	.	.	4r	.	.	4r	.	4r	.	4G/	.	4g\	.	4r	.	4cc\	4ee-\
2r	.	.	2r	.	.	2r	.	2r	.	4G/	.	4g\	.	4r	.	8cc\L	8ee-\L
.	.	.	.	.	.	.	.	.	.	.	.	.	.	.	.	8bX\	8dd\
.	.	.	.	.	.	.	.	.	.	4G/	.	4g\	.	4C/	.	8b\	8dd\
.	.	.	.	.	.	.	.	.	.	.	.	.	.	.	.	8cc\J	8ee-\J
=5	=5	=5	=5	=5	=5	=5	=5	=5	=5	=5	=5	=5	=5	=5	=5	=5	=5
!LO:TX:a:t=3	!	!	!LO:TX:a:t=3	!	!	!LO:TX:a:t=3	!	!LO:TX:a:t=3	!	!	!	!	!	!	!	!	!
0r	.	.	0r	.	.	0r	.	0r	.	1G	.	1g	.	4G\	.	4.dd\	4.ff\
.	.	.	.	.	.	.	.	.	.	.	.	.	.	4GG/	.	.	.
.	.	.	.	.	.	.	.	.	.	.	.	.	.	.	.	8cc\	8ee-\
.	.	.	.	.	.	.	.	.	.	.	.	.	.	4G\	.	8b-\L	8dd\L
.	.	.	.	.	.	.	.	.	.	.	.	.	.	.	.	8cc\	8ee-\
.	.	.	.	.	.	.	.	.	.	.	.	.	.	4r	.	8dd\	8ff\
.	.	.	.	.	.	.	.	.	.	.	.	.	.	.	.	8b-\J	8dd\J
=6	=6	=6	=6	=6	=6	=6	=6	=6	=6	=6	=6	=6	=6	=6	=6	=6	=6
.	.	.	.	.	.	.	.	.	.	4G/	.	4g\	.	4C/	.	4cc\	4ee-\
.	.	.	.	.	.	.	.	.	.	4G/	.	4g\	.	4r	.	8ee-\L	8gg\L
.	.	.	.	.	.	.	.	.	.	.	.	.	.	.	.	8cc\J	8ee-\J
.	.	.	.	.	.	.	.	.	.	4G/	.	4g\	.	4r	.	8cc\L	8ee-\L
.	.	.	.	.	.	.	.	.	.	.	.	.	.	.	.	8b-\	8dd\
.	.	.	.	.	.	.	.	.	.	4G/	.	4g\	.	4C/	.	8b-\	8dd\
.	.	.	.	.	.	.	.	.	.	.	.	.	.	.	.	8cc\J	8ee-\J
=7	=7	=7	=7	=7	=7	=7	=7	=7	=7	=7	=7	=7	=7	=7	=7	=7	=7
1r	.	.	1r	.	.	1r	.	1r	.	1G	.	1g	.	4r	.	4.dd\	4.ff\
.	.	.	.	.	.	.	.	.	.	.	.	.	.	4GG/	.	.	.
.	.	.	.	.	.	.	.	.	.	.	.	.	.	.	.	8cc\	8ee-\
.	.	.	.	.	.	.	.	.	.	.	.	.	.	4G\	.	8bX\L	8dd\L
.	.	.	.	.	.	.	.	.	.	.	.	.	.	.	.	8gg\	8aa-\
.	.	.	.	.	.	.	.	.	.	.	.	.	.	4r	.	8ee-\	8gg\
.	.	.	.	.	.	.	.	.	.	.	.	.	.	.	.	8dd\J	8ff\J
=8	=8	=8	=8	=8	=8	=8	=8	=8	=8	=8	=8	=8	=8	=8	=8	=8	=8
2.c\	Be-	.	2.c\	Be-	.	2.g\	Be-	2.ee-\	Be-	4G/	.	4g\	.	4C/	.	4cc\	4ee-\
.	.	.	.	.	.	.	.	.	.	4G/	.	4g\	.	4C/	.	4g/	4ee-\
.	.	.	.	.	.	.	.	.	.	4G/	.	4g\	.	4C/	.	4g/	4ee-\
4c\	-ne-	.	4c\	-ne-	.	4g\	-ne-	4ee-\	-ne-	4G/	.	4g\	.	4C/	.	4g/	4ee-\
=9	=9	=9	=9	=9	=9	=9	=9	=9	=9	=9	=9	=9	=9	=9	=9	=9	=9
2B-\	-di-	.	2c\	-di-	.	2g\	-di-	2een\	-di-	4r	.	4r	.	4r	.	4r	4r
.	.	.	.	.	.	.	.	.	.	4g\	.	4g\	.	4BB-/	.	4g/	4eeX\
4B-\	-ctus	.	4c\	-ctus	.	4g\	-ctus	4ee\	-ctus	4g\	.	4g\	.	4BB-/	.	4g/	4ee\
4B-\	qui	.	4c\	qui	.	4f\	qui	4ee\	qui	4g\	.	4g\	.	4BB-/	.	4g/	4ee\
=10	=10	=10	=10	=10	=10	=10	=10	=10	=10	=10	=10	=10	=10	=10	=10	=10	=10
2A-\	ve-	.	2c\	ve-	.	2f\	ve-	2ff\	ve-	4r	.	4r	.	4r	.	4r	4r
.	.	.	.	.	.	.	.	.	.	4f\	.	4a-\	.	4AA-/	.	4cc\	4ff\
4A-\	-nit	.	4c\	-nit	.	4f\	-nit	4ff\	-nit	4f\	.	4a-\	.	4AA-/	.	4cc\	4ff\
4r	.	.	4r	.	.	4r	.	4r	.	4f\	.	4a-\	.	4AA-/	.	4cc\	16ff\LL
.	.	.	.	.	.	.	.	.	.	.	.	.	.	.	.	.	16ee-\
.	.	.	.	.	.	.	.	.	.	.	.	.	.	.	.	.	16dd\
.	.	.	.	.	.	.	.	.	.	.	.	.	.	.	.	.	16ee-\JJ
=11	=11	=11	=11	=11	=11	=11	=11	=11	=11	=11	=11	=11	=11	=11	=11	=11	=11
2.B-\	Be-	.	2.B-\	[Be-	.	2.f\	Be-	2.dd\	[Be-	4r	.	4r	.	4r	.	4r	4r
.	.	.	.	.	.	.	.	.	.	4B-/	.	4f\	.	4BB-/	.	4f/	4dd\
.	.	.	.	.	.	.	.	.	.	4B-/	.	4f\	.	4B-\	.	4f/	4dd\
4B-\	-ne-	.	4B-\	-ne-	.	4f\	-ne-	4dd\	-ne-	4B-/	.	4f\	.	4BB-/	.	4f/	4dd\
=12	=12	=12	=12	=12	=12	=12	=12	=12	=12	=12	=12	=12	=12	=12	=12	=12	=12
2A-\	-di-	.	2B-\	-di-	.	2f\	-di-	2dd\	-di-	4r	.	4r	.	4r	.	4r	4r
.	.	.	.	.	.	.	.	.	.	4B-/	.	4f\	.	4AA-/	.	4f/	4dd\
4A-\	-ctus	.	4B-\	-ctus	.	4f\	-ctus	4dd\	-ctus	4B-/	.	4f\	.	4AA-/	.	4f/	4dd\
4A-\	qui	.	4B-\	qui	.	4f\	qui	4dd\	qui	4B-/	.	4f\	.	4A-\	.	4f/	4dd\
=13	=13	=13	=13	=13	=13	=13	=13	=13	=13	=13	=13	=13	=13	=13	=13	=13	=13
2G\	ve-	.	2B-\	ve-	.	2g\	ve-	2ee-\	ve-	4r	.	4r	.	4r	.	4r	4r
.	.	.	.	.	.	.	.	.	.	4e-\	.	4g\	.	4G\	.	4g/	4ee-\
4E-\	-nit	.	4B-\	.	.	4g\	-nit	4ee-\	.	4e-\	.	4e-\	.	4E-\	.	4g/	4ee-\
4E-\	qui	.	4B-\	-nit]	.	4g\	qui	4ee-\	-nit]	4E-/	.	4e-\	.	4E-\	.	8b-/L	8gg\L
.	.	.	.	.	.	.	.	.	.	.	.	.	.	.	.	8g/J	8ee-\J
=14	=14	=14	=14	=14	=14	=14	=14	=14	=14	=14	=14	=14	=14	=14	=14	=14	=14
!	!	!	!	!	!	!	!	!	!	!	!	!	!	!	!	!	!
1E-	ve-	.	2.c\	qui	.	2.a-\	ve-	2.cc\	qui	4E-/	.	4e-\	.	4EE-/	.	2.a-/	2.cc\
.	.	.	.	.	.	.	.	.	.	4r	.	4r	.	4E-\	.	.	.
.	.	.	.	.	.	.	.	.	.	2r	.	2r	.	4EE-/	.	.	.
.	.	.	4B-\	ve-	.	4f\	.	4dd\	ve-	.	.	.	.	4E-\	.	4f/	4dd\
=15	=15	=15	=15	=15	=15	=15	=15	=15	=15	=15	=15	=15	=15	=15	=15	=15	=15
!	!	!	!	!	!	!	!	!	!	!	!	!	!	!LO:TX:t=P:rep:problem	!	!	!
4E-\	-nit	.	4B-\	-nit	.	4g\	-nit	4ee-\	-nit	4r	.	4r	.	4EE-/	.	8f/L	8dd\L
.	.	.	.	.	.	.	.	.	.	.	.	.	.	.	.	8g/	8ee-\
4r	.	.	4r	.	.	4r	.	4r	.	4E-/	.	4e-\	.	4E-\	.	8g/	8ee-\
.	.	.	.	.	.	.	.	.	.	.	.	.	.	.	.	8g/J	8ee-\J
4r	.	.	4r	.	.	4r	.	4r	.	4E-/	.	4e-\	.	4EE-/	.	4g/	8ff\L
.	.	.	.	.	.	.	.	.	.	.	.	.	.	.	.	.	8ee-\
4E-\	[qui	.	4B-\	[qui	.	4g\	[qui	4ee-\	[qui	4E-/	.	4e-\	.	4E-\	.	4g/	8gg\
.	.	.	.	.	.	.	.	.	.	.	.	.	.	.	.	.	8ee-\J
=16	=16	=16	=16	=16	=16	=16	=16	=16	=16	=16	=16	=16	=16	=16	=16	=16	=16
1E-	ve-	.	2.c\	ve-	.	2.a-\	ve-	2.cc\	ve-	2E-/	.	2e-\	.	4EE-/	.	8b-\L	2.cc\
.	.	.	.	.	.	.	.	.	.	.	.	.	.	.	.	8a-\	.
.	.	.	.	.	.	.	.	.	.	.	.	.	.	4E-\	.	8a-\	.
.	.	.	.	.	.	.	.	.	.	.	.	.	.	.	.	8a-\J	.
.	.	.	.	.	.	.	.	.	.	2r	.	2r	.	4EE-/	.	8b-\L	.
.	.	.	.	.	.	.	.	.	.	.	.	.	.	.	.	8a-\	.
.	.	.	4B-\	.	.	4f\	.	4dd\	.	.	.	.	.	4E-\	.	8a-\	4dd\
.	.	.	.	.	.	.	.	.	.	.	.	.	.	.	.	8a-\J	.
=17	=17	=17	=17	=17	=17	=17	=17	=17	=17	=17	=17	=17	=17	=17	=17	=17	=17
4E-\	-nit]	.	4B-\	-nit]	.	4g\	-nit]	4ee-\	-nit]	4E-/	.	4e-\	.	4EE-/	.	8a-/L	(8dd\L
.	.	.	.	.	.	.	.	.	.	.	.	.	.	.	.	8g/	8ee-\)
4r	.	.	4r	.	.	4r	.	4r	.	4r	.	4r	.	4r	.	8g/	(8ee-\
.	.	.	.	.	.	.	.	.	.	.	.	.	.	.	.	8g/J	8ee-\J)
2r	.	.	2r	.	.	2r	.	2r	.	8r	.	8r	.	4EE-/	.	8a-/L	8dd\L
.	.	.	.	.	.	.	.	.	.	8G/L	.	8e-\L	.	.	.	8g/	(8ee-\
.	.	.	.	.	.	.	.	.	.	8B-/	.	8f\	.	4r	.	8f/	8ff\
.	.	.	.	.	.	.	.	.	.	8e-/J	.	8g\J	.	.	.	8e-/J	8gg\J)
=18	=18	=18	=18	=18	=18	=18	=18	=18	=18	=18	=18	=18	=18	=18	=18	=18	=18
!	!	!	!	!	!	!	!	!	!	!	!	!	!	!	!	!	!
4r	.	.	4r	.	.	4r	.	4r	.	2f\	.	2a-\	.	4BB-/	.	8d/L	4.aa-\
.	.	.	.	.	.	.	.	.	.	.	.	.	.	.	.	8B-/J	.
4D\	Be-	.	2B-\	Be-	.	4a-\	Be-	4ff\	Be-	.	.	.	.	4B-\	.	8f/L	.
.	.	.	.	.	.	.	.	.	.	.	.	.	.	.	.	8d/J	8ff\
!	!	!	!	!	!	!	!	!	!	!	!	!	!	!	!	!LO:TX:t=P:problem=mixed beam	!
4E-\	.	.	.	.	.	4g\	.	4ee-\	.	2e-\	.	2g\	.	4E-\	.	8e-\L	8gg\L
.	.	.	.	.	.	.	.	.	.	.	.	.	.	.	.	8ee-\J	8ee-\
4E-\	-ne-	.	4B-\	-ne-	.	4g\	-ne-	4ee-\	-ne-	.	.	.	.	4EE-/	.	8gg\L	8bb-\
.	.	.	.	.	.	.	.	.	.	.	.	.	.	.	.	8ee-\J	8gg\J
=19	=19	=19	=19	=19	=19	=19	=19	=19	=19	=19	=19	=19	=19	=19	=19	=19	=19
4B-\	-di-	.	4B-\	-di-	.	4g\	-di-	4ee-\	-di-	4e-\	.	4g\	.	4BB-/	.	4ee-\	4gg\
4BB-/	-ctus	.	4B-\	-ctus	.	4f\	-ctus	4dd\	-ctus	4B-/	.	4f\	.	4B-\	.	4dd\	4ff\
2r	.	.	2r	.	.	2r	.	2r	.	2r	.	2r	.	8BB-/L	.	2r	2r
.	.	.	.	.	.	.	.	.	.	.	.	.	.	8AA-/	.	.	.
.	.	.	.	.	.	.	.	.	.	.	.	.	.	8GG/	.	.	.
.	.	.	.	.	.	.	.	.	.	.	.	.	.	8FF/J	.	.	.
=20	=20	=20	=20	=20	=20	=20	=20	=20	=20	=20	=20	=20	=20	=20	=20	=20	=20
!LO:TX:a:t=1	!	!	!LO:TX:a:t=1	!	!	!LO:TX:a:t=1	!	!LO:TX:a:t=1	!	!	!	!	!	!	!	!	!LO:TX:a:t=1
1r	.	.	1r	.	.	1r	.	1r	.	4r	.	4r	.	4EE-/	.	(8E-/L	1r
.	.	.	.	.	.	.	.	.	.	.	.	.	.	.	.	8B-/)	.
.	.	.	.	.	.	.	.	.	.	4e-\	.	4g\	.	4r	.	8B-'/	.
.	.	.	.	.	.	.	.	.	.	.	.	.	.	.	.	8B-'/J	.
.	.	.	.	.	.	.	.	.	.	4e-\	.	4g\	.	4E-\	.	(8E-/L	.
.	.	.	.	.	.	.	.	.	.	.	.	.	.	.	.	8B-/)	.
.	.	.	.	.	.	.	.	.	.	8f\L	.	8a-\L	.	4r	.	8B-'/	.
.	.	.	.	.	.	.	.	.	.	8g\J	.	8b-\J	.	.	.	8B-'/J	.
=21	=21	=21	=21	=21	=21	=21	=21	=21	=21	=21	=21	=21	=21	=21	=21	=21	=21
4r	.	.	4r	.	.	1r	.	4r	.	4f\	.	4a-\	.	4BB-/	.	(8D/L	4r
.	.	.	.	.	.	.	.	.	.	.	.	.	.	.	.	8B-/)	.
4BB-/	qui	.	4B-\	qui	.	.	.	4dd\	qui	4B-/	.	4f\	.	4r	.	8B-'/	4dd\
.	.	.	.	.	.	.	.	.	.	.	.	.	.	.	.	8B-'/J	.
2BB-/	Ve-	.	2B-\	ve-	.	.	.	4dd\	ve-	4B-/	.	4f\	.	4B-\	.	(8D/L	4dd\
.	.	.	.	.	.	.	.	.	.	.	.	.	.	.	.	8B-/)	.
.	.	.	.	.	.	.	.	8ee-\L	.	8e-\L	.	8g\L	.	4r	.	8B-'/	8ee-\L
.	.	.	.	.	.	.	.	8ff\J	.	8f\J	.	8a-\J	.	.	.	8B-'/J	8ff\J
=22	=22	=22	=22	=22	=22	=22	=22	=22	=22	=22	=22	=22	=22	=22	=22	=22	=22
4E-\	-nit	.	4B-\	-nit	.	4r	.	4ee-\	-nit	4e-\	.	4g\	.	4E-\	.	(8E-/L	4ee-\
.	.	.	.	.	.	.	.	.	.	.	.	.	.	.	.	8B-/)	.
4r	.	.	4r	.	.	4f\	qui	4r	.	4e-\	.	4g\	.	4r	.	8B-'/	4r
.	.	.	.	.	.	.	.	.	.	.	.	.	.	.	.	8B-'/J	.
2r	.	.	2r	.	.	4f\	ve-	2r	.	4e-\	.	4g\	.	4EE-/	.	(8E-/L	2r
.	.	.	.	.	.	.	.	.	.	.	.	.	.	.	.	8B-/)	.
.	.	.	.	.	.	8g\L	.	.	.	8f\L	.	8a-\L	.	4r	.	8B-'/	.
.	.	.	.	.	.	8a-\J	.	.	.	8g\J	.	8b-\J	.	.	.	8B-'/J	.
=23	=23	=23	=23	=23	=23	=23	=23	=23	=23	=23	=23	=23	=23	=23	=23	=23	=23
4r	.	.	4r	.	.	4g\	-nit	4r	.	4f\	.	4a-\	.	4BB-/	.	(8D/L	4r
.	.	.	.	.	.	.	.	.	.	.	.	.	.	.	.	8B-/)	.
4BB-/	qui	.	4B-\	[qui	.	4r	.	4dd\	[qui	4B-/	.	4f\	.	4r	.	8B-'/	4dd\
.	.	.	.	.	.	.	.	.	.	.	.	.	.	.	.	8B-'/J	.
2BB-/	Ve-	.	2B-\	ve-	.	2r	.	4dd\	ve-	4B-/	.	4f\	.	4B-\	.	(8D/L	4dd\
.	.	.	.	.	.	.	.	.	.	.	.	.	.	.	.	8B-/)	.
.	.	.	.	.	.	.	.	8ee-\L	.	8e-\L	.	8g\L	.	4r	.	8B-'/	8ee-\L
.	.	.	.	.	.	.	.	8ff\J	.	8f\J	.	8a-\J	.	.	.	8B-'/J	8ff\J
=24	=24	=24	=24	=24	=24	=24	=24	=24	=24	=24	=24	=24	=24	=24	=24	=24	=24
4E-\	-nit	.	4B-\	-nit]	.	4r	.	4ee-\	-nit]	4e-\	.	4g\	.	4E-\	.	4B-/	4ee-\
4r	.	.	4r	.	.	4f\	qui	4r	.	4r	.	4r	.	4r	.	4r	8gg\L
.	.	.	.	.	.	.	.	.	.	.	.	.	.	.	.	.	8ee-\J
2r	.	.	2r	.	.	4f\	ve-	2r	.	2r	.	2r	.	2r	.	2r	8dd\L
.	.	.	.	.	.	.	.	.	.	.	.	.	.	.	.	.	8ee-\
.	.	.	.	.	.	8g\L	.	.	.	.	.	.	.	.	.	.	8ee-\
.	.	.	.	.	.	8a-\J	.	.	.	.	.	.	.	.	.	.	8ee-\J
=25	=25	=25	=25	=25	=25	=25	=25	=25	=25	=25	=25	=25	=25	=25	=25	=25	=25
!	!	!	!	!	!	!	!	!	!	!	!	!	!LO:DY:a	!	!	!	!
2.G\	Qui	.	2.B-\	qui	.	4g\	-nit	2.dd-X\	qui	4e-\	p	4e-\	p	4GG/	.	8G/L	2.dd-X\
.	.	.	.	.	.	.	.	.	.	.	.	.	.	.	.	8B-/	.
.	.	.	.	.	.	4r	.	.	.	4e-\	.	4e-\	.	4G\	.	8d/	.
.	.	.	.	.	.	.	.	.	.	.	.	.	.	.	.	8B-/J	.
.	.	.	.	.	.	2r	.	.	.	4e-\	.	4e-\	.	4G\	.	8G/L	.
.	.	.	.	.	.	.	.	.	.	.	.	.	.	.	.	8B-/	.
4G\	ve-	.	4B-\	.	.	.	.	4b-\	.	4e-\	.	4e-\	.	4G\	.	8d/	4b-\
.	.	.	.	.	.	.	.	.	.	.	.	.	.	.	.	8B-/J	.
=26	=26	=26	=26	=26	=26	=26	=26	=26	=26	=26	=26	=26	=26	=26	=26	=26	=26
4A-\	.	.	4c\	ve-	.	2.e-\	Qui	8bn\L	ve-	4e-\	.	4e-\	.	4AA-/	.	8c/L	8bX\L
.	.	.	.	.	.	.	.	8cc\J	.	.	.	.	.	.	.	8e-/	8cc\J
4A-\	-nit	.	4A-\	-nit	.	.	.	4cc\	-nit	4e-\	.	4e-\	.	4A-\	.	8e-/	2cc\
.	.	.	.	.	.	.	.	.	.	.	.	.	.	.	.	8e-/J	.
2r	.	.	2r	.	.	.	.	2r	.	4e-\	.	4e-\	.	4A-\	.	8c/L	.
.	.	.	.	.	.	.	.	.	.	.	.	.	.	.	.	8e-/	.
.	.	.	.	.	.	4e-\	ve-	.	.	4e-\	.	4e-\	.	4A-\	.	8e-/	4cc\
.	.	.	.	.	.	.	.	.	.	.	.	.	.	.	.	8e-/J	.
=27	=27	=27	=27	=27	=27	=27	=27	=27	=27	=27	=27	=27	=27	=27	=27	=27	=27
1An	Ve-	.	2.c\	[qui-	.	4e-\	.	2.ee-\	[qui	4f\	.	4f\	.	4AAn/	.	8c/L	2.ee-\
.	.	.	.	.	.	.	.	.	.	.	.	.	.	.	.	8f/	.
.	.	.	.	.	.	4e-\	-nit	.	.	4f\	.	4f\	.	4An\	.	8f/	.
.	.	.	.	.	.	.	.	.	.	.	.	.	.	.	.	8f/J	.
.	.	.	.	.	.	2r	.	.	.	4f\	.	4f\	.	4A\	.	8c/L	.
.	.	.	.	.	.	.	.	.	.	.	.	.	.	.	.	8f/	.
.	.	.	4An\	.	.	.	.	4cc\	.	4f\	.	4f\	.	4A\	.	8f/	4cc\
.	.	.	.	.	.	.	.	.	.	.	.	.	.	.	.	8f/J	.
=28	=28	=28	=28	=28	=28	=28	=28	=28	=28	=28	=28	=28	=28	=28	=28	=28	=28
4B-\	.	.	4F/	-ve-	.	4f\	ve-	8cc#X\L	ve-	4B-/	.	4f\	.	4BB-/	.	8d/L	8cc#X\L
.	.	.	.	.	.	.	.	8dd\J	.	.	.	.	.	.	.	8f/	8dd\J
4BB-/	-nit	.	4B-/	-nit]	.	4f\	-nit	2dd\	-nit]	4B-/	.	4f\	.	4B-\	.	8f/	2dd\
.	.	.	.	.	.	.	.	.	.	.	.	.	.	.	.	8f/J	.
2r	.	.	2r	.	.	2r	.	.	.	4B-/	.	4f\	.	4BB-/	.	8d/L	.
.	.	.	.	.	.	.	.	.	.	.	.	.	.	.	.	8f/	.
.	.	.	.	.	.	.	.	4r	.	4B-/	.	4f\	.	4B-\	.	8f/	4ff\
.	.	.	.	.	.	.	.	.	.	.	.	.	.	.	.	8f/J	.
=29	=29	=29	=29	=29	=29	=29	=29	=29	=29	=29	=29	=29	=29	=29	=29	=29	=29
1D	Venit	.	1B-	in	.	2.a-\	ve-	2.ff\	in	4B-/	.	4f\	.	4D\	.	8F/L	2.aa-\
.	.	.	.	.	.	.	.	.	.	.	.	.	.	.	.	8B-/	.
.	.	.	.	.	.	.	.	.	.	4B-/	.	4f\	.	4D\	.	8d/	.
.	.	.	.	.	.	.	.	.	.	.	.	.	.	.	.	8B-/J	.
.	.	.	.	.	.	.	.	.	.	4B-/	.	4f\	.	4D\	.	8F/L	.
.	.	.	.	.	.	.	.	.	.	.	.	.	.	.	.	8B-/	.
.	.	.	.	.	.	4f\	-nit in	4dd\	no-	4ryy	.	4f\	.	4D\	.	8d/	4ff\
.	.	.	.	.	.	.	.	.	.	.	.	.	.	.	.	8B-/J	.
=30	=30	=30	=30	=30	=30	=30	=30	=30	=30	=30	=30	=30	=30	=30	=30	=30	=30
!	!	!	!	!	!	!	!	!	!	!	!	!	!	!	!	!LO:TX:t=P:problem=mixed beam	!
4E-\	in	.	4B-\	no-	.	4g\	no-	8ee-\	-mi-	4e-\	.	4g\	.	4E-\	.	8e-/L	8gg\L
.	.	.	.	.	.	.	.	8ee-\	-ne	.	.	.	.	.	.	8b-/J	8ee-\
8A-\	no-	.	8c\L	-mi-	.	8a-\	-mi-	8ff\	Do-	4f\	.	4a-\	.	4A-\	.	8cc\L	8aa-\
8A-\	-mi-	.	8c\J	-ne	.	8a-\	-ne	8ff\	.	.	.	.	.	.	.	8a-\J	8ff\J
4B-\	-ne	.	4B-\	Do-	.	4g\	Do-	4ee-\	-mi-	4e-\	.	4g\	.	4B-\	.	4g/	4ee-\
4BB-/	domi-	.	4B-\	-mi-	.	4f\	-mi-	4dd\	.	4B-/	.	4f\	.	4BB-/	.	4f/	4dd\
=31	=31	=31	=31	=31	=31	=31	=31	=31	=31	=31	=31	=31	=31	=31	=31	=31	=31
4E-\	-ni	.	4B-\	-ni	.	4g\	-ni	4ee-\	-ni	4G/	.	4e-\	.	4E-\	.	4g/	4ee-\
4r	.	.	4r	.	.	4r	.	4r	.	4r	.	4r	.	4EE-/	.	4r	4r
2r	.	.	2r	.	.	2r	.	2r	.	4e-\	.	4g\	.	2r	.	2r	4ee-\
.	.	.	.	.	.	.	.	.	.	4e-\	.	4g\	.	.	.	.	4ee-\
=32	=32	=32	=32	=32	=32	=32	=32	=32	=32	=32	=32	=32	=32	=32	=32	=32	=32
!LO:TX:a:t=5	!	!	!LO:TX:a:t=5	!	!	!LO:TX:a:t=5	!	!LO:TX:a:t=5	!	!	!	!	!	!	!	!	!
00r	.	.	00r	.	.	00r	.	00r	.	4.e-\	.	4.g\	.	4r	.	4r	4.ee-\
.	.	.	.	.	.	.	.	.	.	.	.	.	.	4E-\	.	4B-/	.
.	.	.	.	.	.	.	.	.	.	8g\	.	8b-\	.	.	.	.	8gg\
.	.	.	.	.	.	.	.	.	.	8g\L	.	8b-\L	.	4B-\	.	4B-/	8gg\L
.	.	.	.	.	.	.	.	.	.	8f\	.	8a-\	.	.	.	.	8ff\
.	.	.	.	.	.	.	.	.	.	8e-\	.	8a-\	.	4BB-/	.	4B-/	8ee-\
.	.	.	.	.	.	.	.	.	.	8B-\J	.	8g\J	.	.	.	.	8dd\J
=33	=33	=33	=33	=33	=33	=33	=33	=33	=33	=33	=33	=33	=33	=33	=33	=33	=33
.	.	.	.	.	.	.	.	.	.	4e-\	.	4g\	.	4E-\	.	4B-/	4ee-\
.	.	.	.	.	.	.	.	.	.	8e-\L	.	16g\LL	.	4EE-/	.	4r	16ee-\LL
.	.	.	.	.	.	.	.	.	.	.	.	16f\	.	.	.	.	16dd\
.	.	.	.	.	.	.	.	.	.	8f\J	.	16g\	.	.	.	.	16ee-\
.	.	.	.	.	.	.	.	.	.	.	.	16a-\JJ	.	.	.	.	16ff\JJ
.	.	.	.	.	.	.	.	.	.	4e-\	.	4g\	.	2r	.	2r	4ee-\
.	.	.	.	.	.	.	.	.	.	4e-\	.	4g\	.	.	.	.	4ee-\
=34	=34	=34	=34	=34	=34	=34	=34	=34	=34	=34	=34	=34	=34	=34	=34	=34	=34
.	.	.	.	.	.	.	.	.	.	4.e-\	.	4.g\	.	4r	.	4r	4.ee-\
.	.	.	.	.	.	.	.	.	.	.	.	.	.	4E-\	.	4B-/	.
.	.	.	.	.	.	.	.	.	.	8g\	.	8b-\	.	.	.	.	8gg\
.	.	.	.	.	.	.	.	.	.	8g\L	.	8b-\L	.	4A-\	.	4B-/	8gg\L
.	.	.	.	.	.	.	.	.	.	8f\	.	8a-\	.	.	.	.	8ff\
.	.	.	.	.	.	.	.	.	.	8e-\	.	8g\	.	4BB-/	.	4B-/	8ee-\
.	.	.	.	.	.	.	.	.	.	8B-\J	.	8f\J	.	.	.	.	8dd\J
=35	=35	=35	=35	=35	=35	=35	=35	=35	=35	=35	=35	=35	=35	=35	=35	=35	=35
.	.	.	.	.	.	.	.	.	.	4e-\	.	4g\	.	4E-\	.	4B-/	8ee-\L
.	.	.	.	.	.	.	.	.	.	.	.	.	.	.	.	.	8b-\
.	.	.	.	.	.	.	.	.	.	4f\	.	4a-\	.	4A-\	.	4a-/	8cc\
.	.	.	.	.	.	.	.	.	.	.	.	.	.	.	.	.	16aa-\L
.	.	.	.	.	.	.	.	.	.	.	.	.	.	.	.	.	16ff\JJ
.	.	.	.	.	.	.	.	.	.	4e-\	.	4g\	.	4B-\	.	4g/	4ee-\
.	.	.	.	.	.	.	.	.	.	4B-/	.	4f\	.	4BB-/	.	4f/	4dd\
=36	=36	=36	=36	=36	=36	=36	=36	=36	=36	=36	=36	=36	=36	=36	=36	=36	=36
1r	.	.	1r	.	.	1r	.	1r	.	4e-\	.	4g\	.	4E-\	.	4g/	4ee-\
.	.	.	.	.	.	.	.	.	.	4G/	.	4e-\	.	4EE-/	.	4g/	4e-/
.	.	.	.	.	.	.	.	.	.	4G/	.	4e-\	.	4EE-/	.	4g/	4e-/
.	.	.	.	.	.	.	.	.	.	4r	.	4r	.	4r	.	4r	4r
=37	=37	=37	=37	=37	=37	=37	=37	=37	=37	=37	=37	=37	=37	=37	=37	=37	=37
!	!	!	!	!	!	!	!	!	!	!LO:TX:a:t=5.	!	!LO:TX:a:t=5	!	!	!	!LO:TX:a:t=4	!LO:TX:a:t=4
2.E-\	Be-	.	2.B-\	Be-	.	2.g\	Be-	2.b-\	Be-	00r	.	00r	.	4E-\	.	00r	00r
.	.	.	.	.	.	.	.	.	.	.	.	.	.	4r	.	.	.
.	.	.	.	.	.	.	.	.	.	.	.	.	.	4EE-/	.	.	.
4E-\	-ne-	.	4G/	-ne-	.	4g\	-ne-	4b-\	-ne-	.	.	.	.	4r	.	.	.
=38	=38	=38	=38	=38	=38	=38	=38	=38	=38	=38	=38	=38	=38	=38	=38	=38	=38
2D\	-di-	.	2G/	-di-	.	2f\	-di-	2bn\	-di-	.	.	.	.	4D\	.	.	.
.	.	.	.	.	.	.	.	.	.	.	.	.	.	4r	.	.	.
4D\	-ctus	.	4G/	-ctus	.	4f\	-ctus	4b\	-ctus	.	.	.	.	4DD/	.	.	.
4D\	qui	.	4G/	qui	.	4f\	qui	4b\	qui	.	.	.	.	4r	.	.	.
=39	=39	=39	=39	=39	=39	=39	=39	=39	=39	=39	=39	=39	=39	=39	=39	=39	=39
4C/	ve-	.	2G/	ve-	.	4e-\	ve-	4cc\	ve-	.	.	.	.	4C/	.	.	.
4r	.	.	.	.	.	4f\	.	4dd\	.	.	.	.	.	4r	.	.	.
4r	.	.	4G/	-nit	.	4g\	.	4ee-\	-nit	.	.	.	.	4r	.	.	.
4C/	.	.	4c\	in	.	4g\	.	4ee-\	in	.	.	.	.	4C/	.	.	.
=40	=40	=40	=40	=40	=40	=40	=40	=40	=40	=40	=40	=40	=40	=40	=40	=40	=40
4C/	.	.	4c\	no-	.	4g\	.	4ee-\	no-	.	.	.	.	2C/	.	.	.
8C/	.	.	8c\L	-mi-	.	8a-\	.	8ff\	-mi-	.	.	.	.	.	.	.	.
8C/	.	.	8c\J	-ne	.	8g\	.	8ee-\	-ne	.	.	.	.	.	.	.	.
4F\	.	.	4A-\	Do-	.	4f\	.	4dd\	Do-	.	.	.	.	4F\	.	.	.
4F#X\	.	.	4An\	-mi-	.	4e-\	.	4cc\	-mi-	.	.	.	.	4F#X\	.	.	.
=41	=41	=41	=41	=41	=41	=41	=41	=41	=41	=41	=41	=41	=41	=41	=41	=41	=41
4G\	-nit	.	4G/	-ni	.	4d\	-nit	4bn\	-ni	1r	.	1r	.	4G\	.	4r	4r
4r	.	.	4r	.	.	4r	.	4r	.	.	.	.	.	4G\	.	2g/	4gg\
2r	.	.	2r	.	.	2r	.	2r	.	.	.	.	.	4Bn\	.	.	4dd\
.	.	.	.	.	.	.	.	.	.	.	.	.	.	4c\	.	4g/	4ee-\
=42	=42	=42	=42	=42	=42	=42	=42	=42	=42	=42	=42	=42	=42	=42	=42	=42	=42
!	!	!	!	!	!	!	!	!	!	!	!LO:DY:a	!	!	!	!	!	!
4r	.	.	4r	.	.	4r	.	4r	.	4r	p	4r	.	4d\	.	1g	1ff
!	!	!	!	!	!	!	!	!	!	!	!	!	!LO:DY:a	!	!	!	!
4G\	qui	.	4d\	qui	.	4g\	qui	4bn\	qui	4G/	.	4g\	p	4G\	.	.	.
4Bn\	ve-	.	2d\	ve-	.	2g\	ve-	4dd\	ve-	4G/	.	4g\	.	4B-\	.	.	.
4G\	.	.	.	.	.	.	.	4ff\	.	4G/	.	4g\	.	4G\	.	.	.
=43	=43	=43	=43	=43	=43	=43	=43	=43	=43	=43	=43	=43	=43	=43	=43	=43	=43
4c\	-nit	.	4c\	-nit	.	4g\	-nit	4ee-\	-nit	4G/	.	4g\	.	4c\	.	1g	4ee-\
4r	.	.	4r	.	.	4r	.	4r	.	4r	.	4r	.	4e-\	.	.	8gg\L
.	.	.	.	.	.	.	.	.	.	.	.	.	.	.	.	.	8gg\J
2r	.	.	2r	.	.	2r	.	2r	.	2r	.	2r	.	4Bn\	.	.	8gg\L
.	.	.	.	.	.	.	.	.	.	.	.	.	.	.	.	.	8dd\
.	.	.	.	.	.	.	.	.	.	.	.	.	.	4c\	.	.	8dd\
.	.	.	.	.	.	.	.	.	.	.	.	.	.	.	.	.	8ee-\J
=44	=44	=44	=44	=44	=44	=44	=44	=44	=44	=44	=44	=44	=44	=44	=44	=44	=44
4r	.	.	4r	.	.	4r	.	4r	.	4r	.	4r	.	4d\	.	1g	1ff
4G\	in	.	4d\	in	.	4g\	in	4ff\	in	4G/	.	4g\	.	4G\	.	.	.
4B-\	no-	.	4d\	no-	.	4g\	no-	4ff\	no-	4G/	.	4g\	.	4B-\	.	.	.
4G\	-mi-	.	4d\	-mi-	.	4g\	-mi-	4ff\	-mi-	4G/	.	4g\	.	4G\	.	.	.
=45	=45	=45	=45	=45	=45	=45	=45	=45	=45	=45	=45	=45	=45	=45	=45	=45	=45
4c\	-ne	.	4c\	-ne	.	4g\	-ne	4ee-\	-ne	4G/	.	4g\	.	4c\	.	(4g\	4ee-\
!	!	!	!	!	!	!	!	!	!	!	!	!	!	!	!	!LO:TX:t=P:problem=zapis niejednoznaczny	!
4E-\	Do-	.	2c\	Do-	.	4g\	Do-	2cc\	Do-	4r	.	4r	.	4E-\	.	(4b-\)	4gg\
4F\	.	.	.	.	.	4a-\	.	.	.	2r	.	2r	.	4F\	.	4cc\)	8aa-\L
.	.	.	.	.	.	.	.	.	.	.	.	.	.	.	.	.	8ff\
!	!	!	!	!	!	!	!	!	!	!	!	!	!	!	!	!LO:TX:a:t=h	!
4F\	-mi-	.	4A-\	-mi-	.	4a-\	-mi-	8dd\L	-mi-	.	.	.	.	4F\	.	4a-\	8dd\
.	.	.	.	.	.	.	.	8cc\J	.	.	.	.	.	.	.	.	8cc\J
=46	=46	=46	=46	=46	=46	=46	=46	=46	=46	=46	=46	=46	=46	=46	=46	=46	=46
.	.	.	.	.	.	.	.	8qqcc/	.	.	.	.	.	.	.	.	.
2G\	-ni	.	2G/	-ni	.	2d\	-ni	4bn\	-ni	4G/	.	4g\	.	4G\	.	4e-/	4cc\
.	.	.	.	.	.	.	.	2r	.	8G/L	.	8g\L	.	4GG/	.	4d/	4bX\
.	.	.	.	.	.	.	.	.	.	8G/J	.	8g\J	.	.	.	.	.
2r	.	.	2r	.	.	2r	.	.	.	4G/	.	4g\	.	8G\L	.	2r	2r
.	.	.	.	.	.	.	.	.	.	.	.	.	.	8F\	.	.	.
.	.	.	.	.	.	.	.	4r	.	4r	.	4r	.	8E-\	.	.	.
.	.	.	.	.	.	.	.	.	.	.	.	.	.	8D\J	.	.	.
=47	=47	=47	=47	=47	=47	=47	=47	=47	=47	=47	=47	=47	=47	=47	=47	=47	=47
!	!	!	!	!	!	!	!	!	!	!LO:TX:a:t=3.	!	!LO:TX:a:t=3.	!	!	!	!LO:TX:a:t=3	!LO:TX:a:t=3
2C/	Be-	.	2.c\	Be-	.	2.g\	Be-	2.ee-\	Be-	0r	.	0r	.	4C/	.	0r	0r
.	.	.	.	.	.	.	.	.	.	.	.	.	.	4r	.	.	.
4G\	.	.	.	.	.	.	.	.	.	.	.	.	.	4G\	.	.	.
4G\	-ne-	.	4d\	-ne-	.	4f\	-ne-	4dd\	-ne-	.	.	.	.	4r	.	.	.
=48	=48	=48	=48	=48	=48	=48	=48	=48	=48	=48	=48	=48	=48	=48	=48	=48	=48
2A-\	-di-	.	2c\	-di-	.	8f\L	-di-	8dd\L	-di-	.	.	.	.	4A-\	.	.	.
.	.	.	.	.	.	8e-\	.	8cc\	.	.	.	.	.	.	.	.	.
.	.	.	.	.	.	8d\	.	8b-\	.	.	.	.	.	4r	.	.	.
.	.	.	.	.	.	8e-\J	.	8cc\J	.	.	.	.	.	.	.	.	.
4E-\	-ctus	.	2c\	-ctus	.	4e-\	-ctus	4cc\	-ctus	.	.	.	.	4E-\	.	.	.
4E-\	qui	.	.	.	.	4g\	qui	4cc\	qui	.	.	.	.	4r	.	.	.
=49	=49	=49	=49	=49	=49	=49	=49	=49	=49	=49	=49	=49	=49	=49	=49	=49	=49
2F\	ve-	.	2d\	qui	.	2a-\	Ve-	4.dd\	ve-	1r	.	1r	.	4F\	.	1r	1r
.	.	.	.	.	.	.	.	.	.	.	.	.	.	4F\	.	.	.
.	.	.	.	.	.	.	.	8ff\	.	.	.	.	.	.	.	.	.
4G\	.	.	8e-\L	ve-	.	8g\L	.	8ee-\L	.	.	.	.	.	4G\	.	.	.
.	.	.	8d\	.	.	8f\	.	8dd\	.	.	.	.	.	.	.	.	.
4GG/	.	.	8c\	.	.	8e-\	.	8cc\	.	.	.	.	.	4GG/	.	.	.
.	.	.	8Bn\J	.	.	8d\J	.	8b-\J	.	.	.	.	.	.	.	.	.
=50	=50	=50	=50	=50	=50	=50	=50	=50	=50	=50	=50	=50	=50	=50	=50	=50	=50
!	!	!	!	!	!	!	!	!	!	!	!LO:DY:a	!	!	!	!	!	!
4C/	-nit	.	4c\	-nit	.	4e-\	-nit	4cc\	-nit	4r	pp	4r	.	4C/	.	4r	4r
!	!	!	!	!	!	!	!	!	!	!	!	!	!LO:DY:a	!	!	!	!
4r	.	.	4r	.	.	4r	.	2r	.	4G/	.	4g\	p	4r	.	4cc\	4ee-\
2r	.	.	2r	.	.	2r	.	.	.	4G/	.	4g\	.	4CC/	.	8cc\L	8ee-\L
.	.	.	.	.	.	.	.	.	.	.	.	.	.	.	.	8bX\	8dd\
.	.	.	.	.	.	.	.	4r	.	4G/	.	4g\	.	4r	.	8b\	8dd\
.	.	.	.	.	.	.	.	.	.	.	.	.	.	.	.	8cc\J	8ee-\J
=51	=51	=51	=51	=51	=51	=51	=51	=51	=51	=51	=51	=51	=51	=51	=51	=51	=51
!LO:TX:a:t=3	!	!	!LO:TX:a:t=3	!	!	!LO:TX:a:t=3	!	!LO:TX:a:t=3	!	!	!	!	!	!	!	!	!
1r	.	.	1r	.	.	1r	.	1r	.	1G	.	1g	.	4r	.	4.dd\	4.ff\
.	.	.	.	.	.	.	.	.	.	.	.	.	.	4GG/	.	.	.
.	.	.	.	.	.	.	.	.	.	.	.	.	.	.	.	8cc\	8ee-\
.	.	.	.	.	.	.	.	.	.	.	.	.	.	4G\	.	8b-\L	8dd\L
.	.	.	.	.	.	.	.	.	.	.	.	.	.	.	.	8cc\	8ee-\
.	.	.	.	.	.	.	.	.	.	.	.	.	.	4GG/	.	8dd\	8ff\
.	.	.	.	.	.	.	.	.	.	.	.	.	.	.	.	8b-\J	8dd\J
=52	=52	=52	=52	=52	=52	=52	=52	=52	=52	=52	=52	=52	=52	=52	=52	=52	=52
1r	.	.	1r	.	.	1r	.	1r	.	4G/	.	4g\	.	4C/	.	4cc\	4ee-\
.	.	.	.	.	.	.	.	.	.	4G/	.	4g\	.	4r	.	8ee-\L	8gg\L
.	.	.	.	.	.	.	.	.	.	.	.	.	.	.	.	8cc\J	8ee-\J
.	.	.	.	.	.	.	.	.	.	4G/	.	4g\	.	4CC/	.	8cc\L	8ee-\L
.	.	.	.	.	.	.	.	.	.	.	.	.	.	.	.	8b-\	8dd\
.	.	.	.	.	.	.	.	.	.	4G/	.	4g\	.	4r	.	8b-\	8dd\
.	.	.	.	.	.	.	.	.	.	.	.	.	.	.	.	8cc\J	8ee-\J
=53	=53	=53	=53	=53	=53	=53	=53	=53	=53	=53	=53	=53	=53	=53	=53	=53	=53
1r	.	.	1r	.	.	1r	.	1r	.	1G	.	1g	.	4r	.	4.dd\	4.ff\
.	.	.	.	.	.	.	.	.	.	.	.	.	.	4GG/	.	.	.
.	.	.	.	.	.	.	.	.	.	.	.	.	.	.	.	8cc\L	8ee-\
.	.	.	.	.	.	.	.	.	.	.	.	.	.	4G\	.	8b-\	8dd\L
.	.	.	.	.	.	.	.	.	.	.	.	.	.	.	.	8gg\	8aa-\
.	.	.	.	.	.	.	.	.	.	.	.	.	.	4GG/	.	8ee-\	8gg\
.	.	.	.	.	.	.	.	.	.	.	.	.	.	.	.	8dd\J	8ff\J
=54	=54	=54	=54	=54	=54	=54	=54	=54	=54	=54	=54	=54	=54	=54	=54	=54	=54
2.c\	Be-	.	2.c\	Be-	.	2.g\	Be-	2.ee-\	Be-	4G/	.	4g\	.	4C/	.	4cc\	4ee-\
.	.	.	.	.	.	.	.	.	.	4G/	.	4g\	.	4C/	.	4g/	4ee-\
.	.	.	.	.	.	.	.	.	.	4G/	.	4g\	.	4C/	.	4g/	4ee-\
4c\	-ne-	.	4c\	-ne-	.	4g\	-ne-	4ee-\	-ne-	4G/	.	4g\	.	4C/	.	4g/	4ee-\
=55	=55	=55	=55	=55	=55	=55	=55	=55	=55	=55	=55	=55	=55	=55	=55	=55	=55
2B-\	-di-	.	2c\	-di-	.	2g\	-di-	2een\	-di-	4r	.	4r	.	4r	.	4r	4r
.	.	.	.	.	.	.	.	.	.	4g\	.	4g\	.	4BB-/	.	4g/	4eeX\
4B-\	-ctus	.	4c\	-ctus	.	4g\	-ctus	4ee\	-ctus	4g\	.	4g\	.	4BB-/	.	4g/	4ee\
4B-\	qui	.	4c\	qui	.	4g\	qui	4ee\	qui	4g\	.	4g\	.	4BB-/	.	4g/	4ee\
=56	=56	=56	=56	=56	=56	=56	=56	=56	=56	=56	=56	=56	=56	=56	=56	=56	=56
2A-\	ve-	.	2c\	.	.	2a-\	ve-	2ff\	ve-	4r	.	4r	.	4r	.	4r	4r
.	.	.	.	.	.	.	.	.	.	4f\	.	4a-\	.	4AA-/	.	4cc\	4ff\
4A-\	-nit	.	4c\	.	.	4a-\	-nit	4ff\	-nit	4f\	.	4a-\	.	4AA-/	.	4cc\	4ff\
4r	.	.	4r	.	.	4r	.	4r	.	4f\	.	4f\	.	4A-\	.	4cc\	16ff\LL
.	.	.	.	.	.	.	.	.	.	.	.	.	.	.	.	.	16ee-\
.	.	.	.	.	.	.	.	.	.	.	.	.	.	.	.	.	16dd\
.	.	.	.	.	.	.	.	.	.	.	.	.	.	.	.	.	16ee-\JJ
=57	=57	=57	=57	=57	=57	=57	=57	=57	=57	=57	=57	=57	=57	=57	=57	=57	=57
2.B-\	[Be-	.	2.B-\	ve-	.	2.f\	[Be-	2.dd\	[Be-	4r	.	4r	.	4r	.	4r	4dd\
.	.	.	.	.	.	.	.	.	.	4B-/	.	4f\	.	4B-\	.	4f/	4dd\
.	.	.	.	.	.	.	.	.	.	4B-/	.	4f\	.	4BB-/	.	4f/	4dd\
4B-\	-ne-	.	4B-\	-nit	.	4f\	-ne-	4dd\	-ne-	4B-/	.	4f\	.	4B-\	.	4f/	4dd\
=58	=58	=58	=58	=58	=58	=58	=58	=58	=58	=58	=58	=58	=58	=58	=58	=58	=58
2A-\	-di-	.	2B-\	[qui	.	2f\	-di-	2dd\	-di-	4r	.	4r	.	4r	.	4r	4r
.	.	.	.	.	.	.	.	.	.	4B-/	.	4f\	.	4A-\	.	4f/	4dd\
4A-\	-ctus	.	4B-\	ve-	.	4f\	-ctus	4dd\	-ctus	4B-/	.	4f\	.	4AA-/	.	4f/	4dd\
4A-\	qui	.	4B-\	.	.	4f\	qui	4dd\	qui	4B-/	.	4f\	.	4A-\	.	4f/	4dd\
=59	=59	=59	=59	=59	=59	=59	=59	=59	=59	=59	=59	=59	=59	=59	=59	=59	=59
2G\	ve-	.	2B-\	.	.	2g\	ve-	2ee-\	ve-	4r	.	4r	.	4r	.	4r	4r
.	.	.	.	.	.	.	.	.	.	4e-\	.	4g\	.	4G\	.	4b-\	4ee-\
4G\	-nit]	.	4B-\	-nit]	.	4g\	-nit]	4ee-\	-nit]	4e-\	.	4g\	.	4GG/	.	4b-\	4ee-\
4r	.	.	4r	.	.	4r	.	4r	.	4e-\	.	4g\	.	4G\	.	4b-\	8ee-\L
.	.	.	.	.	.	.	.	.	.	.	.	.	.	.	.	.	8dd\J
=60	=60	=60	=60	=60	=60	=60	=60	=60	=60	=60	=60	=60	=60	=60	=60	=60	=60
!	!	!	!	!	!	!	!	!	!	!LO:TX:a:t=2.	!	!LO:TX:a:t=2.	!	!	!	!	!
2.A-\	Be-	.	2.A-\	Be-	.	2.e-\	Be-	2.cc\	Be-	0r	.	0r	.	4r	.	4r	4r
.	.	.	.	.	.	.	.	.	.	.	.	.	.	4A-\	.	4e-/	4cc\
.	.	.	.	.	.	.	.	.	.	.	.	.	.	4A-\	.	4e-/	4cc\
4A-\	-ne-	.	4A-\	-ne-	.	4e-\	-ne-	4cc\	-ne-	.	.	.	.	4A-\	.	4e-/	4cc\
=61	=61	=61	=61	=61	=61	=61	=61	=61	=61	=61	=61	=61	=61	=61	=61	=61	=61
1F	-di-	.	1A-	-di-	.	2.f\	-di-	2.dd\	-di-	.	.	.	.	4r	.	4r	4r
.	.	.	.	.	.	.	.	.	.	.	.	.	.	4F\	.	4a-\	4dd\
.	.	.	.	.	.	.	.	.	.	.	.	.	.	4F\	.	4a-\	4dd\
.	.	.	.	.	.	4e-\	.	8dd\L	.	.	.	.	.	4F\	.	4a-\	8dd\L
.	.	.	.	.	.	.	.	8cc\J	.	.	.	.	.	.	.	.	8cc\J
=62	=62	=62	=62	=62	=62	=62	=62	=62	=62	=62	=62	=62	=62	=62	=62	=62	=62
4G\	-ctus	.	4G/	-ctus	.	4d\	-ctus	4bn\	-ctus	4G/	.	4g\	.	4G\	.	4d/	4bX\
4r	.	.	4r	.	.	4r	.	2r	.	4r	.	4r	.	4r	.	4ff\	4aa-\
4r	.	.	4r	.	.	2r	.	.	.	4r	.	4r	.	4r	.	4ee-\	4gg\
4Bn\	qui	.	4d\	[qui	.	.	.	4ff\	[qui	4G/	.	4g\	.	4BBn/	.	4dd\	4ff\
=63	=63	=63	=63	=63	=63	=63	=63	=63	=63	=63	=63	=63	=63	=63	=63	=63	=63
4c\	Ve-	.	1c	ve-	.	1g	qui Ve-	1ee-	ve-	1G	.	1g	.	4C/	.	1cc	1ee-
4G\	.	.	.	.	.	.	.	.	.	.	.	.	.	4G\	.	.	.
4E-\	.	.	.	.	.	.	.	.	.	.	.	.	.	4E-\	.	.	.
4C\	-nit	.	.	.	.	.	.	.	.	.	.	.	.	4C/	.	.	.
=64	=64	=64	=64	=64	=64	=64	=64	=64	=64	=64	=64	=64	=64	=64	=64	=64	=64
4G\	qui	.	4Bn\	-nit	.	4g\	-nit	4dd\	-nit	4G/	.	4g\	.	4G\	.	4bX\	4dd\
4r	.	.	4r	.	.	4r	.	2r	.	4r	.	4r	.	4r	.	4ff\	4aa-\
4r	.	.	4r	.	.	4r	.	.	.	4r	.	4r	.	4r	.	4ee-\	4gg\
4c\	Ve-	.	4d\	qui	.	4g\	qui	4ff\	qui	4G/	.	4g\	.	4BB-/	.	4dd\	4ff\
=65	=65	=65	=65	=65	=65	=65	=65	=65	=65	=65	=65	=65	=65	=65	=65	=65	=65
!	!	!	!	!	!	!	!	!	!	!	!	!	!	!	!	!LO:TX:t=P:pion:problem	!
4c\	.	.	1c	ve-	.	1g	Ve-	1ee-	ve-	1G	.	1g	.	4C/	.	1ryy	1ee-
4G\	.	.	.	.	.	.	.	.	.	.	.	.	.	4G\	.	.	.
4E-\	.	.	.	.	.	.	.	.	.	.	.	.	.	4E-\	.	.	.
4C\	.	.	.	.	.	.	.	.	.	.	.	.	.	4C/	.	.	.
=66	=66	=66	=66	=66	=66	=66	=66	=66	=66	=66	=66	=66	=66	=66	=66	=66	=66
4G\	-nit	.	4Bn\	-nit]	.	2g\	-nit	2dd\	-nit]	2G/	.	2g\	.	4G\	.	2bX\	2dd\
4r	.	.	4r	.	.	.	.	.	.	.	.	.	.	4GG/	.	.	.
2r	.	.	2r	.	.	2r	.	2r	.	2r	.	2r	.	8G\L	.	2r	2r
.	.	.	.	.	.	.	.	.	.	.	.	.	.	8F\	.	.	.
.	.	.	.	.	.	.	.	.	.	.	.	.	.	8E-\	.	.	.
.	.	.	.	.	.	.	.	.	.	.	.	.	.	8D\J	.	.	.
=67	=67	=67	=67	=67	=67	=67	=67	=67	=67	=67	=67	=67	=67	=67	=67	=67	=67
!LO:TX:a:t=1	!	!	!LO:TX:a:t=1	!	!	!	!	!	!	!	!	!	!	!	!	!	!
1r	.	.	1r	.	.	4r	.	4r	.	4r	.	4r	.	4C/	.	4r	4r
.	.	.	.	.	.	4e-\	qui	4cc\	qui	2G/	.	2g\	.	4r	.	4cc\	4ee-\
.	.	.	.	.	.	4e-\	ve-	4cc\	ve-	.	.	.	.	4CC/	.	4cc\	4ee-\
.	.	.	.	.	.	8f\L	.	8dd\L	.	4G/	.	4g\	.	4r	.	8dd\L	8ff\L
.	.	.	.	.	.	8g\J	.	8ee-\J	.	.	.	.	.	.	.	8ee-\J	8gg\J
=68	=68	=68	=68	=68	=68	=68	=68	=68	=68	=68	=68	=68	=68	=68	=68	=68	=68
4r	.	.	4r	.	.	4f\	-nit	4dd\	-nit	1G	.	1g	.	4GG/	.	4dd\	4ff\
4D\	qui	.	4An\	qui	.	4r	.	2r	.	.	.	.	.	4r	.	4bX\	4dd\
4D\	ve-	.	4B-\	ve-	.	2r	.	.	.	.	.	.	.	4G\	.	4b\	4dd\
8E-\L	.	.	8c\L	.	.	.	.	4r	.	.	.	.	.	4r	.	8cc\L	8ee-\L
8F\J	.	.	8d\J	.	.	.	.	.	.	.	.	.	.	.	.	8dd\J	8ff\J
=69	=69	=69	=69	=69	=69	=69	=69	=69	=69	=69	=69	=69	=69	=69	=69	=69	=69
4E-\	-nit	.	4c\	-nit	.	4r	.	4r	.	1G	.	1g	.	4C/	.	4cc\	4ee-\
4r	.	.	4r	.	.	4e-\	[qui	4cc\	[qui	.	.	.	.	4r	.	4cc\	4ee-\
2r	.	.	2r	.	.	4e-\	ve-	4cc\	ve-	.	.	.	.	4c\	.	8cc\L	8ee-\L
.	.	.	.	.	.	.	.	.	.	.	.	.	.	.	.	8dd\	8ff\
.	.	.	.	.	.	8f\L	.	8dd\L	.	.	.	.	.	4r	.	8dd\	8ff\
.	.	.	.	.	.	8g\J	.	8ee-\J	.	.	.	.	.	.	.	8ee-\J	8gg\J
=70	=70	=70	=70	=70	=70	=70	=70	=70	=70	=70	=70	=70	=70	=70	=70	=70	=70
4r	.	.	4r	.	.	4f\	-nit]	4dd\	-nit]	1G	.	1g	.	4G\	.	4dd\	4ff\
4D\	[qui	.	4B-\	[qui	.	4r	.	2r	.	.	.	.	.	4r	.	4b-\	4dd\
4D\	ve-	.	4B-\	ve-	.	4r	.	.	.	.	.	.	.	4GG/	.	4b-\	4dd\
8E-\L	.	.	8c\L	.	.	4d\	in	4bn\	in	.	.	.	.	4r	.	8cc\L	8ee-\L
8F\J	.	.	8d\J	.	.	.	.	.	.	.	.	.	.	.	.	8dd\J	8ff\J
=71	=71	=71	=71	=71	=71	=71	=71	=71	=71	=71	=71	=71	=71	=71	=71	=71	=71
4E-\	-nit]	.	4c\	.	.	4e-\	No-	4cc\	no-	4G/	.	4g\	.	4C/	.	4cc\	8ee-\L
.	.	.	.	.	.	.	.	.	.	.	.	.	.	.	.	.	8gg\
4F\	[qui	.	8A-\L	.	.	8f\	-mi-	8cc\	-mi-	4r	.	4r	.	4F\	.	4cc\	8aa-\
.	.	.	8A-\J	.	.	8f\	-ne	8dd\	-ne	.	.	.	.	.	.	.	8ff\J
4G\	ve-	.	4G/	.	.	4e-\	Do-	4cc\	Do-	4G/	.	4g\	.	4G\	.	4cc\	4ee-\
4GG/	.	.	4G/	.	.	4d\	-mi-	4bn\	-mi-	4G/	.	4g\	.	4GG/	.	4bX\	4dd\
=72	=72	=72	=72	=72	=72	=72	=72	=72	=72	=72	=72	=72	=72	=72	=72	=72	=72
2C/	-nit]	.	2G/	-nit]	.	2e-\	-ni	2cc\	-ni	4G/	.	4g\	.	4C/	.	4cc\	2cc\
.	.	.	.	.	.	.	.	.	.	4r	.	4r	.	4CC/	.	4c/	.
2r	.	.	2r	.	.	2r	.	4cc\	Be-	2r	.	2r	.	2r	.	2r	4cc\
.	.	.	.	.	.	.	.	4cc\	-ne-	.	.	.	.	.	.	.	4cc\
=73	=73	=73	=73	=73	=73	=73	=73	=73	=73	=73	=73	=73	=73	=73	=73	=73	=73
!	!	!	!	!	!	!	!	!	!	!LO:TX:a:t=4.	!	!LO:TX:a:t=4.	!	!	!	!	!
2.C/	in	.	2.G/	Be-	.	2.cn\	Be-	2b-X\	-di-	00r	.	00r	.	4CC/	.	8G/L	1eeX
.	.	.	.	.	.	.	.	.	.	.	.	.	.	.	.	8B-/	.
.	.	.	.	.	.	.	.	.	.	.	.	.	.	4r	.	8c/	.
.	.	.	.	.	.	.	.	.	.	.	.	.	.	.	.	8B-/J	.
.	.	.	.	.	.	.	.	4b-\	-ctus	.	.	.	.	4C/	.	8G/L	.
.	.	.	.	.	.	.	.	.	.	.	.	.	.	.	.	8B-/	.
4C/	no-	.	4G/	-ne-	.	4c\	-ne-	4b-\	qui	.	.	.	.	4r	.	8c/	.
.	.	.	.	.	.	.	.	.	.	.	.	.	.	.	.	8B-/J	.
=74	=74	=74	=74	=74	=74	=74	=74	=74	=74	=74	=74	=74	=74	=74	=74	=74	=74
2C/	-mi-	.	2A-\	-di-	.	2f\	-di-	1a-X	ve-	.	.	.	.	4CC/	.	8F/L	2.ff\
.	.	.	.	.	.	.	.	.	.	.	.	.	.	.	.	8A-/	.
.	.	.	.	.	.	.	.	.	.	.	.	.	.	4r	.	8c/	.
.	.	.	.	.	.	.	.	.	.	.	.	.	.	.	.	8A-/J	.
4C/	-ne	.	4c\	-ctus	.	4f\	-ctus	.	.	.	.	.	.	4C/	.	8F/L	.
.	.	.	.	.	.	.	.	.	.	.	.	.	.	.	.	8A-/	.
4C/	Do-	.	4c\	[qui	.	4f\	qui	.	.	.	.	.	.	4r	.	8c/	4ff\
.	.	.	.	.	.	.	.	.	.	.	.	.	.	.	.	8A-/J	.
=75	=75	=75	=75	=75	=75	=75	=75	=75	=75	=75	=75	=75	=75	=75	=75	=75	=75
1C	-mi-	.	1c	ve-	.	1e-	ve-	1g	.	.	.	.	.	4CC/	.	8G/L	1gg
.	.	.	.	.	.	.	.	.	.	.	.	.	.	.	.	8c/	.
.	.	.	.	.	.	.	.	.	.	.	.	.	.	4r	.	8eX/	.
.	.	.	.	.	.	.	.	.	.	.	.	.	.	.	.	8c/J	.
.	.	.	.	.	.	.	.	.	.	.	.	.	.	4C/	.	8G/L	.
.	.	.	.	.	.	.	.	.	.	.	.	.	.	.	.	8c/	.
.	.	.	.	.	.	.	.	.	.	.	.	.	.	4r	.	8e/	.
.	.	.	.	.	.	.	.	.	.	.	.	.	.	.	.	8c/J	.
=76	=76	=76	=76	=76	=76	=76	=76	=76	=76	=76	=76	=76	=76	=76	=76	=76	=76
4F\	-ni	.	4c\	-nit]	.	4f\	-nit	4a-\	-nit	.	.	.	.	4FF/	.	4f/	4aa-\
4r	.	.	4r	.	.	4r	.	2r	.	.	.	.	.	4r	.	4ryy	8aa-\L
.	.	.	.	.	.	.	.	.	.	.	.	.	.	.	.	.	8gg\J
2r	.	.	2r	.	.	2r	.	.	.	.	.	.	.	2r	.	2r	8ff\L
.	.	.	.	.	.	.	.	.	.	.	.	.	.	.	.	.	8ee-\
.	.	.	.	.	.	.	.	4r	.	.	.	.	.	.	.	.	8dd\
.	.	.	.	.	.	.	.	.	.	.	.	.	.	.	.	.	8cc\J
=77	=77	=77	=77	=77	=77	=77	=77	=77	=77	=77	=77	=77	=77	=77	=77	=77	=77
1G	in	.	1c	in	.	1f	in	1bn	in	2r	.	2r	.	4GG/	.	8d/L	1bX
.	.	.	.	.	.	.	.	.	.	.	.	.	.	.	.	8f/	.
.	.	.	.	.	.	.	.	.	.	.	.	.	.	4r	.	8g/	.
.	.	.	.	.	.	.	.	.	.	.	.	.	.	.	.	8f/J	.
.	.	.	.	.	.	.	.	.	.	2G/	.	2g\	.	4G\	.	8d/L	.
.	.	.	.	.	.	.	.	.	.	.	.	.	.	.	.	8f/	.
.	.	.	.	.	.	.	.	.	.	.	.	.	.	4r	.	8g/	.
.	.	.	.	.	.	.	.	.	.	.	.	.	.	.	.	8f/J	.
=78	=78	=78	=78	=78	=78	=78	=78	=78	=78	=78	=78	=78	=78	=78	=78	=78	=78
4c\	No-	.	4c\	no-	.	4e-X\	no-	4cc\	no-	4G/	.	4g\	.	4C/	.	4e-/	4cc\
8F\	-mi-	.	8A-\L	-mi-	.	8f\	-mi-	8dd\	-mi-	4r	.	4f\	.	4F\	.	4f/	4dd\
8F\	-ne	.	8A-\J	-ne	.	8f\	-ne	8dd\	-ne	.	.	.	.	.	.	.	.
4G\	Do-	.	8A-/L	Do-	.	4e-\	Do-	4cc\	Do-	4G/	.	4g\	.	4G\	.	4e-/	4cc\
.	.	.	8G/J	.	.	.	.	.	.	.	.	.	.	.	.	.	.
4GG/	-mi-	.	4G/	-mi-	.	4d\	-mi-	4b-\	-mi-	4G/	.	4g\	.	4GG/	.	4d/	4b-\
=79	=79	=79	=79	=79	=79	=79	=79	=79	=79	=79	=79	=79	=79	=79	=79	=79	=79
2C/	-ni	.	2G/	-ni	.	2e-\	-ni	2cc\	-ni	2G/	.	2g\	.	4C/	.	2e-/	2cc\
.	.	.	.	.	.	.	.	.	.	.	.	.	.	4CC/	.	.	.
2r	.	.	2r	.	.	2r	.	2r	.	4G/	.	4g\	.	4GG/	.	8g/L	8ee-\L
.	.	.	.	.	.	.	.	.	.	.	.	.	.	.	.	8f/	8dd\
.	.	.	.	.	.	.	.	.	.	4G/	.	4g\	.	4G\	.	8e-/	8cc\
.	.	.	.	.	.	.	.	.	.	.	.	.	.	.	.	8d/J	8b-\J
=80	=80	=80	=80	=80	=80	=80	=80	=80	=80	=80	=80	=80	=80	=80	=80	=80	=80
!LO:TX:t=P:problem=brakujący fragment	!	!	!LO:TX:a:t=2	!	!	!LO:TX:a:t=2	!	!LO:TX:a:t=2	!	!	!	!	!	!	!	!	!
1ryy	.	.	1r	.	.	1r	.	1r	.	2G/	.	2g\	.	4C/	.	4.e-/	4.cc\
.	.	.	.	.	.	.	.	.	.	.	.	.	.	4CC/	.	.	.
.	.	.	.	.	.	.	.	.	.	.	.	.	.	.	.	8g/	8ee-\
.	.	.	.	.	.	.	.	.	.	4G/	.	4g\	.	4GG/	.	8g/L	8ee-\L
.	.	.	.	.	.	.	.	.	.	.	.	.	.	.	.	8f/	8dd\
.	.	.	.	.	.	.	.	.	.	4G/	.	4g\	.	4G\	.	8e-/	8cc\
.	.	.	.	.	.	.	.	.	.	.	.	.	.	.	.	8d/J	8bX\J
=81	=81	=81	=81	=81	=81	=81	=81	=81	=81	=81	=81	=81	=81	=81	=81	=81	=81
1ryy	.	.	1r	.	.	1r	.	1r	.	4G/	.	4g\	.	4C/	.	4e-/	4cc\
.	.	.	.	.	.	.	.	.	.	4G/	.	4g\	.	4C/	.	4e-/	4cc\
.	.	.	.	.	.	.	.	.	.	4G/	.	4g\	.	4C/	.	4e-/	4cc\
.	.	.	.	.	.	.	.	.	.	4r	.	4r	.	4r	.	4r	4r
=82||	=82||	=82||	=82||	=82||	=82||	=82||	=82||	=82||	=82||	=82||	=82||	=82||	=82||	=82||	=82||	=82||	=82||
*M3/4	*	*	*M3/4	*	*	*M3/4	*	*M3/4	*	*M3/4	*	*M3/4	*	*M3/4	*	*M3/4	*M3/4
!	!	!	!	!	!	!	!	!LO:Bi:TX:a:t=all(egr)o moderato	!	!LO:TX:a:Bi:t=All(egr)o moder(a)to.	!LO:DY:a	!LO:TX:a:Bi:t=all(egr)o mode(rato)&colon;	!LO:DY:a	!	!	!LO:TX:a:Bi:t=all(egr)o	!LO:TX:a:Bi:t=all(egr)o moderato.
4E-\	O-	.	2.B-\	O-	.	2.g\	O-	2.b-\	O-	2.g\	p	2.b-\	p	4EE-/	.	2.g/	2.b-\
4G\	.	.	.	.	.	.	.	.	.	.	.	.	.	4GG/	.	.	.
4B-\	.	.	.	.	.	.	.	.	.	.	.	.	.	4BB-/	.	.	.
=83	=83	=83	=83	=83	=83	=83	=83	=83	=83	=83	=83	=83	=83	=83	=83	=83	=83
2E-\	-san-	.	2B-\	-san-	.	4g\	-san-	4b-\	-san-	4g\	.	4b-\	.	4E-\	.	4g/	4b-\
.	.	.	.	.	.	4a-\	.	4cc\	.	4a-\	.	4cc\	.	4r	.	4a-/	4cc\
4BB-/	-na	.	4B-\	-na	.	4f\	-na	4a-\	-na	4f\	.	4a-\	.	4BB-/	.	4f/	4a-\
=84	=84	=84	=84	=84	=84	=84	=84	=84	=84	=84	=84	=84	=84	=84	=84	=84	=84
!	!	!	!	!	!	!	!	!	!	!	!	!	!	!	!	!LO:SIC:v:s=2.e-/	!
4E-\	[O-	.	2.B-\	[O-	.	2.e-\	[O-	2.g\	[O-	2.e-\	.	2.g\	.	4EE-/	.	2.e/	2.g/
4G\	.	.	.	.	.	.	.	.	.	.	.	.	.	4GG/	.	.	.
4B-\	.	.	.	.	.	.	.	.	.	.	.	.	.	4BB-/	.	.	.
=85	=85	=85	=85	=85	=85	=85	=85	=85	=85	=85	=85	=85	=85	=85	=85	=85	=85
2E-\	-san-	.	2B-\	-san-	.	4e-\	-san-	4g\	-san-	4e-\	.	4g\	.	4E-\	.	4e-/	4g/
.	.	.	.	.	.	4f\	.	4a-\	.	4f\	.	4a-\	.	4r	.	4f/	4a-/
4BB-/	-na]	.	4B-\	-na]	.	4d\	-na]	4f/	-na]	4B-/	.	4f\	.	4BB-/	.	4d/	4f/
=86	=86	=86	=86	=86	=86	=86	=86	=86	=86	=86	=86	=86	=86	=86	=86	=86	=86
4E-\	in	.	2.B-\	in	.	2.g\	in	2.b-\	in	2.g\	.	2.b-\	.	4EE-/	.	2.g/	2.b-\
4G\	.	.	.	.	.	.	.	.	.	.	.	.	.	4GG/	.	.	.
4B-\	.	.	.	.	.	.	.	.	.	.	.	.	.	4BB-/	.	.	.
=87	=87	=87	=87	=87	=87	=87	=87	=87	=87	=87	=87	=87	=87	=87	=87	=87	=87
4E-\	ex-	.	2B-\	ex-	.	4g\	ex-	(4b-\	ex-	4g\	.	4b-\	.	4E-\	.	4g/	4b-\
4r	.	.	.	.	.	4a-\	.	4cc\	.	4a-\	.	4cc\	.	4r	.	4a-/	4cc\
4BB-/	-cel-	.	4B-\	.	.	4f\	.	4a-\)	.	4f\	.	4a-\	.	4BB-/	.	4f/	4a-\
=88	=88	=88	=88	=88	=88	=88	=88	=88	=88	=88	=88	=88	=88	=88	=88	=88	=88
4E-\	.	.	2.B-\	-cel-	.	2.e-\	-cel-	2.g\	-cel-	2.e-\	.	2.g\	.	4E-\	.	2.e-/	2.g/
4G\	.	.	.	.	.	.	.	.	.	.	.	.	.	4G\	.	.	.
4B-\	.	.	.	.	.	.	.	.	.	.	.	.	.	4B-\	.	.	.
=89	=89	=89	=89	=89	=89	=89	=89	=89	=89	=89	=89	=89	=89	=89	=89	=89	=89
4E-\	-sis	.	2.B-\	.	.	4e-\	.	(4g\	.	4e-\	.	4g\	.	4E-\	.	4e-/	4g/
4r	.	.	.	.	.	4f\	.	4a-\	.	4f\	.	4a-\	.	4r	.	4f/	4a-/
4BB-/	.	.	.	.	.	4d\	.	4f\)	.	4B-/	.	4f\	.	4BB-/	.	4d/	4f/
=90	=90	=90	=90	=90	=90	=90	=90	=90	=90	=90	=90	=90	=90	=90	=90	=90	=90
4E-\	.	.	4B-\	-sis	.	4e-\	-sis	4g\	-sis	4G/	.	4e-\	.	4EE-/	.	4g\	4g/
4r	.	.	4r	.	.	4r	.	4r	.	4r	.	4r	.	4GG/	.	4b-\	4gg\
!	!	!	!	!	!	!	!	!	!	!	!	!	!	!	!	!LO:TX:t=P:problem=niejednoznaczny zapis	!
4r	.	.	4r	.	.	4r	.	4r	.	4r	.	4r	.	4BB-/	.	4a-\	4ff\
=91	=91	=91	=91	=91	=91	=91	=91	=91	=91	=91	=91	=91	=91	=91	=91	=91	=91
!	!	!	!	!	!	!	!	!	!	!	!LO:DY:a	!	!LO:DY:a	!	!	!	!
4E-\	O-	.	2.B-\	in ex	.	4g\	O-	2.ee-\	O-	4e-\	f	4g\	f	4E-\	.	4g\	4ee-\
4G\	.	.	.	.	.	4b-\	.	.	.	4g\	.	4b-\	.	4G\	.	4b-\	4ee-\
4E-\	.	.	.	.	.	4g\	.	.	.	4e-\	.	4g\	.	4E-\	.	4g\	4ee-\
=92	=92	=92	=92	=92	=92	=92	=92	=92	=92	=92	=92	=92	=92	=92	=92	=92	=92
2BB-/	-san-	.	2B-\	cel-	.	2f\	-san-	4ee-\	-san-	2B-/	.	2f\	.	2BB-/	.	2f/	4ee-\
.	.	.	.	.	.	.	.	4dd\	.	.	.	.	.	.	.	.	4dd\
4C/	-na	.	4An\	-sis	.	4e-\	-na	4ee-\	-na	4r	.	4r	.	4C/	.	4b-\	4ee-\
=93	=93	=93	=93	=93	=93	=93	=93	=93	=93	=93	=93	=93	=93	=93	=93	=93	=93
!	!	!	!	!	!	!	!	!	!	!	!	!	!	!	!	!LO:TX:t=P:pion:problem	!
4D\	O-	.	2.B-\	O-	.	4f\	O-	2b-\	in	2.B-/	.	4f\	.	4D\	.	2.ryy	4ff\
4E-\	.	.	.	.	.	4g\	.	.	.	.	.	4g\	.	4E-\	.	.	4gg\
4F\	.	.	.	.	.	4a-\	-san-	4b-\	ex-	.	.	4a-\	.	4F\	.	.	4aa-\
=94	=94	=94	=94	=94	=94	=94	=94	=94	=94	=94	=94	=94	=94	=94	=94	=94	=94
2.E-\	-sanna	.	2.B-\	-san-	.	2.g\	-na	2.b-\	-cel-	2e-\	.	2g\	.	2E-\	.	2.b-\	4gg\
.	.	.	.	.	.	.	.	.	.	.	.	.	.	.	.	.	4bb-\
.	.	.	.	.	.	.	.	.	.	4r	.	4r	.	4r	.	.	4gg\
=95	=95	=95	=95	=95	=95	=95	=95	=95	=95	=95	=95	=95	=95	=95	=95	=95	=95
2.D\	in	.	2.B-\	-na	.	2.f\	in	2.b-\	-sis	2B-/	.	2f\	.	2D\	.	2.b-\	4r
.	.	.	.	.	.	.	.	.	.	.	.	.	.	.	.	.	4bb-\
.	.	.	.	.	.	.	.	.	.	4r	.	4r	.	4r	.	.	4ff\
=96	=96	=96	=96	=96	=96	=96	=96	=96	=96	=96	=96	=96	=96	=96	=96	=96	=96
2.C/	ex-	.	2.An\	[O-	.	2.f\	ex-	2.ee-\	O-	2e-\	.	2f\	.	2C/	.	2.a\	4r
.	.	.	.	.	.	.	.	.	.	.	.	.	.	.	.	.	4ccc\
.	.	.	.	.	.	.	.	.	.	4r	.	4r	.	4r	.	.	4ee-\
=97	=97	=97	=97	=97	=97	=97	=97	=97	=97	=97	=97	=97	=97	=97	=97	=97	=97
2.BB-/	-cel-	.	2.B-\	.	.	2.f\	-cel-	2.dd\	.	2B-/	.	2f\	.	2BB-/	.	4b-\	4r
.	.	.	.	.	.	.	.	.	.	.	.	.	.	.	.	2f/	4bb-\
.	.	.	.	.	.	.	.	.	.	4r	.	4r	.	4r	.	.	4dd\
=98	=98	=98	=98	=98	=98	=98	=98	=98	=98	=98	=98	=98	=98	=98	=98	=98	=98
2E-\	-sis	.	2c\	-san-	.	2g\	-sis	4cc\	-san-	2e-\	.	2g\	.	4E-\	.	4g/	4cc\
.	.	.	.	.	.	.	.	4bn\	.	.	.	.	.	4E-\	.	4g/	4bX\
4E-\	.	.	4c\	-na]	.	4g\	.	4cc\	-na	4r	.	4r	.	4E-\	.	4g/	4cc\
=99	=99	=99	=99	=99	=99	=99	=99	=99	=99	=99	=99	=99	=99	=99	=99	=99	=99
2E-\	in	.	2c\	in	.	2g\	in	2cc\	in	2e-\	.	2g\	.	4E-\	.	4g/	4cc\
.	.	.	.	.	.	.	.	.	.	.	.	.	.	4E-\	.	4ee-\	4gg\
4E-\	ex-	.	4c\	Ex-	.	4g\	ex-	4ee-\	ex-	4e-\	.	4g\	.	4E-\	.	4cc\	4ee-\
=100	=100	=100	=100	=100	=100	=100	=100	=100	=100	=100	=100	=100	=100	=100	=100	=100	=100
2.F\	-cel-	.	2.Bn\	-cel-	.	2.f\	-cel-	2dd\	-cel-	2.f\	.	2.f\	.	4F\	.	2.b-\	2.dd\
.	.	.	.	.	.	.	.	.	.	.	.	.	.	4F\	.	.	.
.	.	.	.	.	.	.	.	4dd\	.	.	.	.	.	4F\	.	.	.
=101	=101	=101	=101	=101	=101	=101	=101	=101	=101	=101	=101	=101	=101	=101	=101	=101	=101
2.F\	.	.	2.A-\	.	.	2.f\	.	2.cc\	.	4f\	.	4f\	.	4FF/	.	2.a\	2.cc\
.	.	.	.	.	.	.	.	.	.	4f\	.	4f\	.	4FF/	.	.	.
.	.	.	.	.	.	.	.	.	.	4f\	.	4f\	.	4FF/	.	.	.
=102	=102	=102	=102	=102	=102	=102	=102	=102	=102	=102	=102	=102	=102	=102	=102	=102	=102
4BB-/	-sis	.	4B-\	-sis	.	4f\	-sis	4b-\	-sis	4B-/	.	4f\	.	4BB-/	.	4b-\	2.b-\
4r	.	.	4r	.	.	4r	.	4r	.	4B-/	.	4f\	.	4F\	.	4r	.
4r	.	.	4r	.	.	4r	.	4r	.	4B-/	.	4f\	.	4D\	.	4r	.
=103	=103	=103	=103	=103	=103	=103	=103	=103	=103	=103	=103	=103	=103	=103	=103	=103	=103
!LO:TX:a:t=4	!	!	!LO:TX:a:t=4	!	!	!LO:TX:a:t=4	!	!LO:TX:a:t=4	!	!	!	!	!	!	!	!	!
2.r	.	.	2.r	.	.	2.r	.	2.r	.	4B-/	.	4f\	.	4BB-/	.	4r	4r
.	.	.	.	.	.	.	.	.	.	4r	.	4r	.	4B-\	.	4r	4r
.	.	.	.	.	.	.	.	.	.	4B-/	.	4f\	.	4r	.	4dd\	4ff\
=104	=104	=104	=104	=104	=104	=104	=104	=104	=104	=104	=104	=104	=104	=104	=104	=104	=104
2.r	.	.	2.r	.	.	2.r	.	2.r	.	4B-/	.	4f\	.	2BB-/	.	4dd\	4ff\
.	.	.	.	.	.	.	.	.	.	4e-\	.	4g\	.	.	.	4ee-\	4gg\
.	.	.	.	.	.	.	.	.	.	4f\	.	4a-\	.	4r	.	4ff\	4aa-X\
=105	=105	=105	=105	=105	=105	=105	=105	=105	=105	=105	=105	=105	=105	=105	=105	=105	=105
2.r	.	.	2.r	.	.	2.r	.	2.r	.	2.f\	.	2.a-\	.	4BB-/	.	2.ff\	2.aa-\
.	.	.	.	.	.	.	.	.	.	.	.	.	.	4D/	.	.	.
.	.	.	.	.	.	.	.	.	.	.	.	.	.	4F/	.	.	.
=106	=106	=106	=106	=106	=106	=106	=106	=106	=106	=106	=106	=106	=106	=106	=106	=106	=106
2.r	.	.	2.r	.	.	2.r	.	2.r	.	2f\	.	2a-\	.	2BB-/	.	4ff\	4aa-\
.	.	.	.	.	.	.	.	.	.	.	.	.	.	.	.	4dd\	4ff\
.	.	.	.	.	.	.	.	.	.	4r	.	4r	.	4r	.	4b-\	4dd\
=107	=107	=107	=107	=107	=107	=107	=107	=107	=107	=107	=107	=107	=107	=107	=107	=107	=107
4r	.	.	4r	.	.	4r	.	4r	.	2B-/	.	2f\	.	2BB-/	.	4dd\	4ff\
4r	.	.	4r	.	.	4r	.	4r	.	.	.	.	.	.	.	4b-\	4dd\
4D\	O-	.	4B-\	o-	.	4f\	O-	4a-\	O-	4f\	.	4a-\	.	4BB-/	.	4f/	4a-\
=108	=108	=108	=108	=108	=108	=108	=108	=108	=108	=108	=108	=108	=108	=108	=108	=108	=108
2E-\	-san-	.	2B-\	-san-	.	2e-\	-san-	4g\	-san-	4e-\	.	4g\	.	4E-\	.	4e-/	4g/
.	.	.	.	.	.	.	.	4ee-\	.	4e-\	.	4e-\	.	4G\	.	4b-\	4ee-\
4G\	-na	.	4B-\	-na	.	4e-\	-na	4dd\	-na	4e-\	.	4e-\	.	4G\	.	4b-\	4dd\
=109	=109	=109	=109	=109	=109	=109	=109	=109	=109	=109	=109	=109	=109	=109	=109	=109	=109
2A-\	in	.	2.c\	in ex-	.	2e-\	in	4cc\	in	2e-\	.	2e-\	.	2A-\	.	4cc\	4cc\
.	.	.	.	.	.	.	.	4aa-\	.	.	.	.	.	.	.	4cc\	4aa-\
4A-\	ex-	.	.	.	.	4a-\	ex-	4ff\	ex-	4f\	.	4a-\	.	4AA-/	.	4cc\	4ff\
=110	=110	=110	=110	=110	=110	=110	=110	=110	=110	=110	=110	=110	=110	=110	=110	=110	=110
2.B-\	-cel-	.	2.B-\	-cel-	.	2.g\	-cel-	2.ee-\	-cel-	2.e-\	.	2.g\	.	4BB-/	.	4g/	2.ee-\
.	.	.	.	.	.	.	.	.	.	.	.	.	.	4BB-/	.	4g/	.
.	.	.	.	.	.	.	.	.	.	.	.	.	.	4BB-/	.	4g/	.
=111	=111	=111	=111	=111	=111	=111	=111	=111	=111	=111	=111	=111	=111	=111	=111	=111	=111
2.BB-/	.	.	2.B-\	.	.	2.f\	.	2.dd\	.	2.B-/	.	2.f\	.	4BB-/	.	4f/	2.dd\
.	.	.	.	.	.	.	.	.	.	.	.	.	.	4BB-/	.	4f/	.
.	.	.	.	.	.	.	.	.	.	.	.	.	.	4BB-/	.	4f/	.
=112	=112	=112	=112	=112	=112	=112	=112	=112	=112	=112	=112	=112	=112	=112	=112	=112	=112
4E-\	-sis	.	4B-\	-sis	.	4g\	-sis	4ee-\	-sis	4G/	.	4e-\	.	4E-\	.	4g/	4ee-\
4r	.	.	4r	.	.	4r	.	4r	.	4E-/	.	4e-\	.	4r	.	4r	4r
4r	.	.	4r	.	.	4r	.	4r	.	4E-/	.	4e-\	.	4r	.	4r	4r
=113	=113	=113	=113	=113	=113	=113	=113	=113	=113	=113	=113	=113	=113	=113	=113	=113	=113
!	!	!LO:DY:a	!	!	!LO:DY:a	!	!	!	!	!	!LO:DY:a	!	!	!	!	!	!
2.E-\	in	p	2.B-\	in	p	2.g\	in	2.dd-X\	in	2.E-/	p	2.e-\	.	4EE-/	p	4r	4r
.	.	.	.	.	.	.	.	.	.	.	.	.	.	4r	.	4b-\	4dd-X\
.	.	.	.	.	.	.	.	.	.	.	.	.	.	4r	.	4b-\	4dd-\
=114	=114	=114	=114	=114	=114	=114	=114	=114	=114	=114	=114	=114	=114	=114	=114	=114	=114
2.E-\	Ex-	.	2.A-\	ex-	.	2.a-\	ex-	2.cc\	ex-	2.E-/	.	2.e-\	.	4EE-/	.	4r	4r
.	.	.	.	.	.	.	.	.	.	.	.	.	.	4r	.	4a-\	4cc\
.	.	.	.	.	.	.	.	.	.	.	.	.	.	4r	.	4a-\	4cc\
=115	=115	=115	=115	=115	=115	=115	=115	=115	=115	=115	=115	=115	=115	=115	=115	=115	=115
2.E-\	-cel-	.	2.B-\	-cel-	.	2.a-\	-cel-	2.ddn\	-cel-	2.B-/	.	2.f\	.	4EE-/	.	4r	4r
.	.	.	.	.	.	.	.	.	.	.	.	.	.	4r	.	4a-\	4dd\
.	.	.	.	.	.	.	.	.	.	.	.	.	.	4r	.	4a-\	4dd\
=116	=116	=116	=116	=116	=116	=116	=116	=116	=116	=116	=116	=116	=116	=116	=116	=116	=116
4E-\	-sis	.	4B-\	-sis	.	4g\	-sis	4ee-\	-sis	4e-\	.	4g\	.	4EE-/	.	4g/	4ee-\
4r	.	.	4r	.	.	4r	.	4r	.	4r	.	4r	.	4GG/	.	4r	4r
4r	.	.	4r	.	.	4r	.	4r	.	4G/	.	4e-\	.	4BB-/	.	4g/	4ee-\
=117	=117	=117	=117	=117	=117	=117	=117	=117	=117	=117	=117	=117	=117	=117	=117	=117	=117
!	!	!	!	!	!	!	!	!LO:TX:a:t=1	!	!	!	!	!	!	!	!	!
!LO:TX:t=P:problem=brakujący fragment	!	!	!LO:TX:a:t=1	!	!	!LO:TX:a:t=1	!	!LO:TX:b:t=Verte Agnus Dei	!	!	!	!	!	!	!	!	!
2.ryy	.	.	2.r	.	.	2.r	.	2.r	.	2G/	.	2e-\	.	2EE-/	.	2g/	2ee-\
.	.	.	.	.	.	.	.	.	.	4r	.	4r	.	4r	.	4r	4r
==	==	==	==	==	==	==	==	==	==	==	==	==	==	==	==	==	==
*-	*-	*-	*-	*-	*-	*-	*-	*-	*-	*-	*-	*-	*-	*-	*-	*-	*-
!!title: @{OTL};
!!!RDF**kern: > = above
!!!RDF**kern: < = below
!!!RDF**kern: | = vertical stroke
!!!RDF**kern: N = linked
!!!RDF**kern: i = editorial accidental
!!!RDF**kern: l = terminal long
!!!ENC: Andrzej Gręziak
!!!END: 2020-09-20
!!!EED: Wojciech Jakubiak-Danek
!!!EEV: 2022-01-31
!!!URL-scan: http://repozytorium.nifc.pl/skany/pl-cz-nut--iii-555
!!!ONB-nifc: UWAGA: części Requiem: Requiem, Kyrie, Dies irae, Qui Mariam, Domine Jesu Christe, Sanctus, Pleni sunt, Benedictus, Agnus Dei, Lux aeterna
